app/images/device-smartsi.svg

<svg baseProfile="tiny" xmlns="http://www.w3.org/2000/svg" width="92.014" height="51.5" viewBox="1692.016 -583.673 92.014 51.5"><path d="M1756.039-571.056c-4.435 0-8.043 3.608-8.043 8.044 0 4.435 3.608 8.043 8.043 8.043s8.043-3.608 8.043-8.043c0-4.436-3.608-8.044-8.043-8.044zM1709.174-569.083h30.244v22.308h-30.244zM1782.529-558.018c0-20.541-2.109-24.156-6.543-24.156h-75.928c-5.504 0-6.543 3.868-6.543 24.345 0 20.541 2.109 24.155 6.543 24.155h75.928c5.504.001 6.543-3.867 6.543-24.344zm-41.611 12.743h-33.244v-25.308h33.244v25.308zm9.545 1.78c-2.014 0-3.646-1.632-3.646-3.646 0-2.014 1.633-3.646 3.646-3.646s3.646 1.633 3.646 3.646c0 2.014-1.632 3.646-3.646 3.646zm10.295 0c-2.014 0-3.646-1.632-3.646-3.646 0-2.014 1.633-3.646 3.646-3.646s3.646 1.633 3.646 3.646c0 2.014-1.633 3.646-3.646 3.646zm-4.719-9.974c-5.262 0-9.543-4.281-9.543-9.543 0-5.263 4.281-9.544 9.543-9.544s9.543 4.281 9.543 9.544c0 5.262-4.281 9.543-9.543 9.543z" fill="none"/><path d="M1784.029-558.018c0-19.901-1.804-25.656-8.043-25.656h-75.928c-7.419 0-8.043 6.314-8.043 25.845 0 19.901 1.804 25.655 8.043 25.655h75.928c7.419.001 8.043-6.313 8.043-25.844zm-90.513.189c0-20.477 1.039-24.345 6.543-24.345h75.928c4.434 0 6.543 3.615 6.543 24.156 0 20.477-1.039 24.344-6.543 24.344h-75.928c-4.434.001-6.543-3.614-6.543-24.155z"/><circle cx="1750.463" cy="-547.141" r="3.646"/><circle cx="1760.758" cy="-547.141" r="3.646"/><path d="M1756.039-572.556c-5.262 0-9.543 4.281-9.543 9.544 0 5.262 4.281 9.543 9.543 9.543s9.543-4.281 9.543-9.543c0-5.263-4.281-9.544-9.543-9.544zm0 17.587c-4.435 0-8.043-3.608-8.043-8.043 0-4.436 3.608-8.044 8.043-8.044s8.043 3.608 8.043 8.044c0 4.435-3.608 8.043-8.043 8.043zM1707.674-545.275h33.244v-25.308h-33.244v25.308zm1.5-23.808h30.244v22.308h-30.244v-22.308z"/></svg>

<?xml version="1.0" encoding="utf-8"?>
<!-- Generator: Adobe Illustrator 16.0.0, SVG Export Plug-In . SVG Version: 6.00 Build 0)  -->
<!DOCTYPE svg PUBLIC "-//W3C//DTD SVG 1.1 Tiny//EN" "http://www.w3.org/Graphics/SVG/1.1/DTD/svg11-tiny.dtd">
<svg version="1.1" baseProfile="tiny" id="Layer_4" xmlns="http://www.w3.org/2000/svg" xmlns:xlink="http://www.w3.org/1999/xlink"
	 x="0px" y="0px" width="92.014px" height="51.5px" viewBox="1692.016 -583.673 92.014 51.5" xml:space="preserve">
<g>
	<path fill="none" d="M1756.039-571.056c-4.435,0-8.043,3.608-8.043,8.044c0,4.435,3.608,8.043,8.043,8.043s8.043-3.608,8.043-8.043
		C1764.082-567.448,1760.474-571.056,1756.039-571.056z"/>
	<rect x="1709.174" y="-569.083" fill="none" width="30.244" height="22.308"/>
	<path fill="none" d="M1782.529-558.018c0-20.541-2.109-24.156-6.543-24.156h-75.928c-5.504,0-6.543,3.868-6.543,24.345
		c0,20.541,2.109,24.155,6.543,24.155h75.928C1781.49-533.673,1782.529-537.541,1782.529-558.018z M1740.918-545.275h-33.244
		v-25.308h33.244V-545.275z M1750.463-543.495c-2.014,0-3.646-1.632-3.646-3.646c0-2.014,1.633-3.646,3.646-3.646
		s3.646,1.633,3.646,3.646C1754.109-545.127,1752.477-543.495,1750.463-543.495z M1760.758-543.495
		c-2.014,0-3.646-1.632-3.646-3.646c0-2.014,1.633-3.646,3.646-3.646s3.646,1.633,3.646,3.646
		C1764.404-545.127,1762.771-543.495,1760.758-543.495z M1756.039-553.469c-5.262,0-9.543-4.281-9.543-9.543
		c0-5.263,4.281-9.544,9.543-9.544s9.543,4.281,9.543,9.544C1765.582-557.75,1761.301-553.469,1756.039-553.469z"/>
	<path d="M1784.029-558.018c0-19.901-1.804-25.656-8.043-25.656h-75.928c-7.419,0-8.043,6.314-8.043,25.845
		c0,19.901,1.804,25.655,8.043,25.655h75.928C1783.405-532.173,1784.029-538.487,1784.029-558.018z M1693.516-557.829
		c0-20.477,1.039-24.345,6.543-24.345h75.928c4.434,0,6.543,3.615,6.543,24.156c0,20.477-1.039,24.344-6.543,24.344h-75.928
		C1695.625-533.673,1693.516-537.288,1693.516-557.829z"/>
	<circle cx="1750.463" cy="-547.141" r="3.646"/>
	<circle cx="1760.758" cy="-547.141" r="3.646"/>
	<path d="M1756.039-572.556c-5.262,0-9.543,4.281-9.543,9.544c0,5.262,4.281,9.543,9.543,9.543s9.543-4.281,9.543-9.543
		C1765.582-568.275,1761.301-572.556,1756.039-572.556z M1756.039-554.969c-4.435,0-8.043-3.608-8.043-8.043
		c0-4.436,3.608-8.044,8.043-8.044s8.043,3.608,8.043,8.044C1764.082-558.577,1760.474-554.969,1756.039-554.969z"/>
	<path d="M1707.674-545.275h33.244v-25.308h-33.244V-545.275z M1709.174-569.083h30.244v22.308h-30.244V-569.083z"/>
</g>
</svg>
